img/services/06.svg

<svg width="70" height="70" viewBox="0 0 70 70" fill="none" xmlns="http://www.w3.org/2000/svg">
<path d="M64.3548 6.77441H39.5161C36.4034 6.77441 33.871 9.30683 33.871 12.4196V38.3873H31.2516C31.4785 37.8962 31.6129 37.3543 31.6129 36.7784C31.6129 35.2509 30.7119 33.8655 29.3165 33.2457L24.7823 31.2304C21.9811 29.9862 19.0061 29.3551 15.9431 29.3551C14.0982 29.3551 12.3629 30.0743 11.0566 31.3794C9.75145 32.6834 9.03226 34.4188 9.03226 36.2659V38.3873H3.3871C1.51968 38.3873 0 39.907 0 41.7744V46.2905C0 48.158 1.51968 49.6776 3.3871 49.6776H9.03226V50.6317C9.03226 51.6422 9.22194 52.6301 9.59677 53.5672L10.9008 56.8278C9.79774 57.3867 9.03226 58.5191 9.03226 59.8389V70.0002H29.3548V59.8389C29.3548 58.5586 28.6323 57.4544 27.5811 56.8797L27.9198 56.2034C28.8581 54.3236 29.3548 52.2214 29.3548 50.1213C29.3548 49.9723 29.3368 49.8267 29.3311 49.6776H33.871V62.097C33.871 65.2097 36.4034 67.7422 39.5161 67.7422H64.3548C67.4676 67.7422 70 65.2097 70 62.097V12.4196C70 9.30683 67.4676 6.77441 64.3548 6.77441ZM67.7419 12.4196V15.8067H56.4223C57.1392 14.8605 57.5806 13.6954 57.5806 12.4196V9.03248H64.3548C66.2223 9.03248 67.7419 10.5522 67.7419 12.4196ZM48.5484 12.4196V9.03248H55.3226V12.4196C55.3226 14.287 53.8029 15.8067 51.9355 15.8067C50.0681 15.8067 48.5484 14.287 48.5484 12.4196ZM39.5161 9.03248H46.2903V12.4196C46.2903 13.6954 46.7318 14.8605 47.4487 15.8067H36.129V12.4196C36.129 10.5522 37.6487 9.03248 39.5161 9.03248ZM27.4129 42.9034L26.3866 40.6454H36.129V42.9034H27.4129ZM38.3871 41.1455L44.835 43.5628C45.0303 43.6362 45.1613 43.8247 45.1613 44.0325C45.1613 44.2402 45.0303 44.4288 44.8361 44.501L38.3871 46.9194V41.1455ZM11.2903 36.2659C11.2903 35.0217 11.7747 33.8543 12.6531 32.9759C13.5202 32.1099 14.7192 31.6131 15.9431 31.6131C18.6889 31.6131 21.3545 32.1788 23.8655 33.2943L28.3997 35.3096C28.98 35.567 29.3548 36.1439 29.3548 36.7784C29.3548 37.6659 28.6334 38.3873 27.7471 38.3873H25.3603L24.211 35.8583C23.6623 34.6502 22.4531 33.8712 21.1265 33.8712C18.4676 33.8712 16.2784 35.8368 15.8877 38.3873H11.2903V36.2659ZM9.03226 45.1615H17.9313L19.0603 47.4196H9.03226V45.1615ZM9.03226 42.9034V40.6454H15.9081C15.9995 41.1264 16.1485 41.5972 16.3676 42.0352L16.8023 42.9034H9.03226ZM2.25806 46.2905V41.7744C2.25806 41.1512 2.765 40.6454 3.3871 40.6454H6.77419V47.4196H3.3871C2.765 47.4196 2.25806 46.9138 2.25806 46.2905ZM19.1935 49.6776V51.9357H21.4516V47.1531L18.3885 41.0259C18.1763 40.6025 18.0645 40.1294 18.0645 39.6563V39.1912C18.0645 37.5033 19.4385 36.1293 21.1265 36.1293C21.5679 36.1293 21.971 36.3878 22.1539 36.792L26.0795 45.428C26.7535 46.9104 27.0956 48.4899 27.0956 50.1202C27.0956 51.8725 26.6813 53.6247 25.8977 55.1918L25.27 56.4518H13.1837L11.6934 52.7283C11.4258 52.0576 11.2903 51.3531 11.2903 50.6317V49.6776H19.1935ZM27.0968 67.7422H11.2903V59.8389C11.2903 59.2157 11.7973 58.7099 12.4194 58.7099H25.9677C26.5898 58.7099 27.0968 59.2157 27.0968 59.8389V67.7422ZM28.3974 45.1615H36.129V47.4196H29.0771C28.9213 46.6507 28.6876 45.8988 28.3974 45.1615ZM37.4624 49.6776L45.6298 46.6146C46.7002 46.2126 47.4194 45.1751 47.4194 44.0325C47.4194 42.8899 46.7002 41.8523 45.6298 41.4493L37.4624 38.3873H36.129V18.0647H67.7419V51.9357H36.129V49.6776H37.4624ZM64.3548 65.4841H39.5161C37.6487 65.4841 36.129 63.9644 36.129 62.097V54.1938H67.7419V62.097C67.7419 63.9644 66.2223 65.4841 64.3548 65.4841Z" fill="black"/>
<path d="M56.4515 56.4529H47.4192C46.1739 56.4529 45.1611 57.4656 45.1611 58.7109V60.969C45.1611 62.2143 46.1739 63.2271 47.4192 63.2271H56.4515C57.6968 63.2271 58.7095 62.2143 58.7095 60.969V58.7109C58.7095 57.4656 57.6968 56.4529 56.4515 56.4529ZM47.4192 60.969V58.7109H56.4515L56.4526 60.969H47.4192Z" fill="black"/>
<path d="M51.9357 13.5493C52.5592 13.5493 53.0647 13.0438 53.0647 12.4203C53.0647 11.7967 52.5592 11.2913 51.9357 11.2913C51.3121 11.2913 50.8066 11.7967 50.8066 12.4203C50.8066 13.0438 51.3121 13.5493 51.9357 13.5493Z" fill="black"/>
<path d="M54.1936 20.3232H38.3872V36.1297H54.1936V20.3232ZM51.9356 33.8716H40.6453V22.5813H51.9356V33.8716Z" fill="black"/>
<path d="M56.4517 20.3232H65.4839V22.5813H56.4517V20.3232Z" fill="black"/>
<path d="M56.4517 24.8384H65.4839V27.0964H56.4517V24.8384Z" fill="black"/>
<path d="M56.4517 29.3552H65.4839V31.6133H56.4517V29.3552Z" fill="black"/>
<path d="M56.4517 33.8704H65.4839V36.1284H56.4517V33.8704Z" fill="black"/>
<path d="M49.6777 38.3872H65.4842V40.6453H49.6777V38.3872Z" fill="black"/>
<path d="M49.6777 42.9023H65.4842V45.1604H49.6777V42.9023Z" fill="black"/>
<path d="M49.6777 47.4192H65.4842V49.6773H49.6777V47.4192Z" fill="black"/>
<path d="M7.90321 20.3226H14.21L17.9279 24.0416C18.436 24.5474 19.1382 24.8387 19.8551 24.8387C21.3579 24.8387 22.5806 23.616 22.5806 22.1132V20.3226H28.2258C30.0932 20.3226 31.6129 18.8029 31.6129 16.9355V3.3871C31.6129 1.51968 30.0932 0 28.2258 0H7.90321C6.03579 0 4.51611 1.51968 4.51611 3.3871V16.9355C4.51611 18.8029 6.03579 20.3226 7.90321 20.3226ZM6.77418 3.3871C6.77418 2.76387 7.28111 2.25806 7.90321 2.25806H28.2258C28.8479 2.25806 29.3548 2.76387 29.3548 3.3871V16.9355C29.3548 17.5587 28.8479 18.0645 28.2258 18.0645H20.3226V22.1132C20.3226 22.4937 19.7942 22.7127 19.5243 22.444L15.1448 18.0645H7.90321C7.28111 18.0645 6.77418 17.5587 6.77418 16.9355V3.3871Z" fill="black"/>
<path d="M9.03223 4.51514H27.0967V6.7732H9.03223V4.51514Z" fill="black"/>
<path d="M22.5806 9.03198H27.0967V11.29H22.5806V9.03198Z" fill="black"/>
<path d="M9.03223 9.03198H20.3225V11.29H9.03223V9.03198Z" fill="black"/>
<path d="M9.03223 13.5471H27.0967V15.8052H9.03223V13.5471Z" fill="black"/>
</svg>

<svg width="70" height="70" fill="none" xmlns="http://www.w3.org/2000/svg"><path d="M64.355 6.774H39.516a5.652 5.652 0 00-5.645 5.646v25.967h-2.62a3.821 3.821 0 00.362-1.609 3.867 3.867 0 00-2.296-3.532l-4.535-2.016a21.644 21.644 0 00-8.839-1.875 6.87 6.87 0 00-4.886 2.024 6.862 6.862 0 00-2.025 4.887v2.121H3.387A3.391 3.391 0 000 41.774v4.517a3.391 3.391 0 003.387 3.387h5.645v.954c0 1.01.19 1.998.565 2.935l1.304 3.26a3.378 3.378 0 00-1.869 3.012V70h20.323V59.84c0-1.28-.723-2.385-1.774-2.96l.339-.676a13.686 13.686 0 001.435-6.082c0-.149-.018-.294-.024-.443h4.54v12.419a5.652 5.652 0 005.645 5.645h24.839A5.652 5.652 0 0070 62.097V12.42a5.652 5.652 0 00-5.645-5.646zm3.387 5.646v3.387h-11.32a5.587 5.587 0 001.159-3.387V9.032h6.774a3.391 3.391 0 013.387 3.388zm-19.194 0V9.032h6.775v3.388a3.391 3.391 0 01-3.388 3.387 3.391 3.391 0 01-3.387-3.387zm-9.032-3.388h6.774v3.388a5.59 5.59 0 001.159 3.387h-11.32V12.42a3.391 3.391 0 013.387-3.388zM27.413 42.903l-1.026-2.258h9.742v2.258h-8.716zm10.974-1.758l6.448 2.418a.502.502 0 01.001.938l-6.449 2.418v-5.773zm-27.097-4.88a4.62 4.62 0 011.363-3.29 4.689 4.689 0 013.29-1.362c2.746 0 5.412.566 7.923 1.681L28.4 35.31a1.608 1.608 0 01-.653 3.077H25.36l-1.149-2.529a3.393 3.393 0 00-3.084-1.987c-2.66 0-4.849 1.966-5.24 4.516H11.29v-2.121zm-2.258 8.896h8.9l1.128 2.259H9.032v-2.26zm0-2.258v-2.258h6.876c.091.481.24.952.46 1.39l.434.868h-7.77zm-6.774 3.388v-4.517a1.13 1.13 0 011.13-1.129h3.386v6.775H3.387a1.13 1.13 0 01-1.129-1.13zm16.936 3.387v2.258h2.258v-4.783l-3.064-6.127a3.07 3.07 0 01-.324-1.37v-.465a3.066 3.066 0 013.063-3.062c.44 0 .844.259 1.027.663l3.925 8.636a11.264 11.264 0 011.017 4.692 11.4 11.4 0 01-1.198 5.072l-.628 1.26H13.184l-1.49-3.724a5.63 5.63 0 01-.404-2.096v-.954h7.904zm7.903 18.064H11.29V59.84a1.13 1.13 0 011.13-1.13h13.548c.622 0 1.129.507 1.129 1.13v7.903zm1.3-22.58h7.732v2.258h-7.052c-.156-.77-.39-1.521-.68-2.259zm9.065 4.516l8.168-3.063a2.772 2.772 0 001.79-2.583c0-1.142-.72-2.18-1.79-2.583l-8.168-3.062H36.13V18.065h31.613v33.87H36.129v-2.257h1.333zm26.893 15.806H39.516a3.391 3.391 0 01-3.387-3.387v-7.903h31.613v7.903a3.391 3.391 0 01-3.387 3.387z" fill="#000"/><path d="M56.452 56.453h-9.033a2.26 2.26 0 00-2.258 2.258v2.258a2.26 2.26 0 002.258 2.258h9.033a2.26 2.26 0 002.258-2.258v-2.258a2.26 2.26 0 00-2.258-2.258zm-9.033 4.516v-2.258h9.033v2.258H47.42zm4.517-47.419a1.129 1.129 0 100-2.259 1.129 1.129 0 000 2.258zm2.258 6.773H38.387V36.13h15.807V20.323zm-2.258 13.549h-11.29v-11.29h11.29v11.29zm4.516-13.549h9.032v2.258h-9.032v-2.258zm0 4.515h9.032v2.258h-9.032v-2.258zm0 4.517h9.032v2.258h-9.032v-2.258zm0 4.515h9.032v2.258h-9.032V33.87zm-6.774 4.517h15.806v2.258H49.678v-2.258zm0 4.515h15.806v2.258H49.678v-2.258zm0 4.518h15.806v2.257H49.678V47.42zM7.903 20.323h6.307l3.718 3.719c.508.505 1.21.797 1.927.797a2.729 2.729 0 002.726-2.726v-1.79h5.645a3.391 3.391 0 003.387-3.387V3.387A3.391 3.391 0 0028.226 0H7.903a3.391 3.391 0 00-3.387 3.387v13.549a3.391 3.391 0 003.387 3.387zM6.774 3.387a1.13 1.13 0 011.13-1.129h20.322a1.13 1.13 0 011.129 1.13v13.548a1.13 1.13 0 01-1.13 1.128h-7.902v4.05c0 .38-.529.599-.799.33l-4.38-4.38h-7.24a1.13 1.13 0 01-1.13-1.128V3.387z" fill="#000"/><path d="M9.032 4.515h18.065v2.258H9.032V4.515zM22.58 9.032h4.517v2.258H22.58V9.032zm-13.548 0h11.29v2.258H9.033V9.032zm0 4.515h18.065v2.258H9.032v-2.258z" fill="#000"/></svg>
